X:170
T:Maids of Castlebar, The
R:reel
Z:Transcribed by Dave Marshall
M:C|
K:D
|:dD (3DDD EDCE|D2FA BAFA|dDcD BDAF|DEFD EDB,D|
~F3D EDB,D|A,DFA BAFA|defe dBAG|F2EG FDD2:|
|:^ga^ga fdde|fdad fddf|gebe gfef|geBe gfeg|
fdad bdad|f2ec dBAF|ABde f2ec|dBAG FDD2:|
